X:425
T:Go to Bed Betty and I'll come to thee Lover
A:Wyresdale, Lancashire
B:E and J Winder, 1835-41
L:1/8
M:6/8
O:England
Z:Richard Robinson 
%%TUNEURL: http://www.leeds.ac.uk/music/Info/RRTuneBk/gettune/00000eca.html
%%ID:00000eca
K:G
(g/f/) |\
e>dc cGc | ded eag | edc cGA  | c>dc dag ::
%
c2c      (e/f/)ge | d2d (f/g/)af | c2c (e/f/)ge | c2c (e/f/)ge |
(f/g/)af (e/f/)ge | d>ed eag     | e>dc cGA     | cdc eag ::
%
cgc   ece    | dad  ada    | cgc gcg | cgc  efg |
a2(b  a)(gf) | g2(a g)(fe) | ded eag | e>dc cGA | c>dc eag  ::
